projects/ccf-eui/src/assets/icons/organ-icons/organ-icon-kidney-right.svg

<svg width="64" height="64" viewBox="0 0 64 64" fill="currentColor" xmlns="http://www.w3.org/2000/svg">
<g clip-path="url(#clip0_1795_260)">
<path d="M35.072 27.52C35.7631 26.127 36.1279 24.5949 36.1387 23.04C36.1387 23.04 39.488 23.8293 41.664 19.6053C44.2453 14.592 42.2187 9.47199 36.7787 6.67732C27.1787 1.74932 18.8373 13.0773 16.3413 17.8987C13.8453 22.72 10.4533 36.5653 19.0507 41.0027C24.0427 43.5627 29.2267 43.6693 31.8507 38.4427C32.607 37.203 32.9314 35.7478 32.7732 34.3042C32.6149 32.8607 31.983 31.5103 30.976 30.464C32.6634 30.0337 34.1263 28.9823 35.072 27.52Z" />
<path d="M37.3974 26.112C37.2891 26.8042 37.0882 27.4787 36.8 28.1173C37.5566 28.6524 38.1767 29.358 38.6103 30.177C39.0439 30.996 39.2788 31.9055 39.296 32.832V59.2853H41.4294V32.832C41.407 31.4564 41.0225 30.111 40.3147 28.9312C39.6068 27.7515 38.6006 26.7791 37.3974 26.112Z" />
</g>
<defs>
<clipPath id="clip0_1795_260">
<rect width="64" height="64" />
</clipPath>
</defs>
</svg>

<svg xmlns="http://www.w3.org/2000/svg" width="64" height="64" fill="currentColor" viewBox="0 0 64 64"><g clip-path="url(#a)"><path d="M35.072 27.52a10.24 10.24 0 0 0 1.067-4.48s3.349.79 5.525-3.435c2.581-5.013.555-10.133-4.885-12.928-9.6-4.928-17.942 6.4-20.438 11.222s-5.888 18.666 2.71 23.104c4.992 2.56 10.176 2.666 12.8-2.56a6.57 6.57 0 0 0-.875-7.979 6.9 6.9 0 0 0 4.096-2.944"/><path d="M37.397 26.112a7.8 7.8 0 0 1-.597 2.005 5.91 5.91 0 0 1 2.496 4.715v26.453h2.133V32.832a7.83 7.83 0 0 0-4.032-6.72"/></g><defs><clipPath id="a"><path d="M0 0h64v64H0z"/></clipPath></defs></svg>
